src/assets/icons/logo.svg

<svg width="100%" height="100%" viewBox="0 0 24 24" fill="current"
  xmlns="http://www.w3.org/2000/svg">
  <path d="M3.05033 18.9456C3.26842 18.728 3.50328 18.5941 3.7717 18.5439C4.02334 18.4937 4.1911 18.477 4.25821 18.477C4.67761 18.477 5.21444 18.6611 5.83516 19.0126C8.09993 20.4351 9.39169 22.0921 9.69366 24C9.69366 24 9.81109 23.749 10.0627 23.2636C10.3144 22.7782 10.6499 22.2092 11.0693 21.59C12.1933 20.8368 13.0656 20.6527 13.6696 20.6527H13.7535C14.4245 20.7029 14.7936 20.8703 14.7936 20.8703C14.7936 20.9038 14.1225 19.7657 13.0656 19.6318C13.4012 19.4477 13.7535 19.3473 14.1225 19.3473C14.24 19.3473 14.3742 19.3473 14.4916 19.364C15.6324 19.6151 16.4041 20.5021 17.1926 21.523C17.6623 22.159 18.1824 22.728 18.7695 23.2301C19.3567 23.749 20.1116 24 21.0343 24C21.0343 24 20.8162 23.7824 20.38 23.3305C19.9271 22.8787 19.4741 22.2762 19.0212 21.4895C18.5682 20.7197 18.2662 19.8159 18.132 18.7782C18.1152 18.8117 18.4675 19.7992 18.7695 20.1004C18.7695 20.1004 18.7527 19.7824 18.7024 19.1632C18.6521 18.5439 18.6185 18.0586 18.6185 17.7071C18.6185 17.0377 18.6689 16.2845 18.7527 15.4644C18.9037 14.2092 19.256 13.0042 19.8432 11.8494C19.86 11.8494 19.7593 11.749 19.5748 11.749C19.3735 11.749 19.105 11.8326 18.6521 12.2008C18.6521 12.2008 18.6353 12.0335 18.6185 11.7155C18.585 11.3975 18.5682 11.113 18.5682 10.8787C18.5682 10.5607 18.585 10.2092 18.6185 9.82427C18.7024 8.48536 19.1218 6.96234 20.1452 5.87448C20.1452 5.87448 19.9438 5.70711 19.5412 5.38912C19.1386 5.07113 18.6521 4.63598 18.0985 4.08368C16.9577 2.97908 15.8337 1.55649 15.3136 0C15.3136 0 15.3472 0.334728 15.4311 1.00418C15.515 1.69038 15.5988 2.49372 15.6827 3.41423C15.8673 5.2887 15.8673 6.27615 15.8673 6.59414C15.8673 7.21339 15.8337 7.69875 15.7498 8.03347C15.3472 9.62343 15.0452 10.0084 15.0452 10.0251C15.0452 10.0418 15.8169 9.35565 16.3873 8.90377C16.3873 8.90377 16.3202 9.22176 16.186 9.841C16.0518 10.477 15.9176 11.2636 15.7834 12.2176C15.4982 14.1088 15.515 15.2803 15.515 15.4979C15.515 16.3515 15.5988 17.1213 15.7498 17.8243C15.7498 17.8243 15.5485 17.59 15.1627 17.3222C14.76 17.0711 14.2568 16.8703 13.7031 16.8703H13.6025C14.0219 16.9874 14.4748 17.205 14.609 17.523L13.0153 17.4393C13.0321 17.4393 12.9314 17.1883 12.9314 16.9707C12.9314 16.9707 12.8979 16.6862 12.8476 16.1004C12.7805 15.5314 12.7301 14.9121 12.7134 14.2594C12.6798 13.6067 12.663 13.0711 12.663 12.6527C12.663 12.1172 12.6798 11.5649 12.7134 10.9958C12.8476 9.43933 13.0992 8.20084 13.4851 7.24686C13.8541 6.30962 14.0387 5.841 14.0387 5.841C14.0554 5.841 13.0321 6.7113 12.7134 7.24686C12.7134 7.24686 12.7637 6.96234 12.8476 6.41004C12.9314 5.85774 13.0489 5.18828 13.1999 4.38494C13.3508 3.59833 13.5522 2.81172 13.8038 2.0251C14.0387 1.23849 14.3071 0.60251 14.5923 0.100418C14.5923 0.100418 14.4245 0.351464 14.089 0.83682C13.7535 1.32218 13.3173 1.90795 12.7972 2.56067C12.2604 3.23013 11.69 3.86611 11.0861 4.45188C10.4821 5.03766 9.91175 5.45607 9.35813 5.70711C9.35813 5.70711 9.42524 6.14226 9.57622 6.99582C9.71043 7.84937 9.84464 8.83682 9.99563 9.95816C10.1298 11.0795 10.2137 12.1004 10.264 13.0209L9.55945 12.569C9.55945 12.569 9.64333 12.9038 9.79431 13.59C9.9453 14.2762 10.0627 14.9958 10.1634 15.749C10.264 16.5188 10.3144 17.1883 10.3144 17.7406C10.3144 18.0251 10.3144 18.2929 10.2976 18.5607C10.1802 19.682 10.046 20.4854 9.89497 20.9372C9.74398 21.3891 9.6601 21.6234 9.6601 21.6234C9.47557 20.954 8.58643 19.0962 8.08315 18.6611C8.09993 18.6778 8.1167 18.728 8.1167 18.795C8.1167 18.8787 8.09993 18.9623 8.08315 19.046C7.94894 18.9121 7.81474 18.7782 7.66375 18.6611C7.66375 18.6611 7.49599 18.5105 7.345 18.1423C7.26112 17.9582 7.19402 17.7071 7.14369 17.3724C7.00948 16.7197 7.02626 16.0669 7.02626 15.9331C7.02626 15.4644 7.05981 14.9121 7.14369 14.2762C7.37856 12.4519 7.6302 11.046 7.88184 10.0418C8.13348 9.05439 8.25091 8.5523 8.25091 8.5523C8.26769 8.53557 7.26112 8.88703 7.09336 9.38912C7.09336 9.38912 7.11014 8.87029 7.12692 7.83264C7.14369 6.81172 7.26112 5.58996 7.47921 4.16736C7.6973 2.76151 8.08315 1.42259 8.63676 0.167364C8.03282 0.769875 7.51277 1.33891 7.05981 1.85774C6.53975 2.47699 5.96937 3.0795 5.36543 3.6318C4.76149 4.20084 3.97301 4.76987 3 5.32218C3 5.32218 3.08388 5.55649 3.26842 6.00837C3.45295 6.46025 3.65427 7.02929 3.87236 7.69875C4.32531 9.03766 4.67761 10.4937 4.67761 11.4979V11.6151C4.67761 11.6151 4.56018 11.5146 4.42597 11.3975C4.27498 11.2803 4.10722 11.2301 3.98979 11.2301H3.93946C3.93946 11.2301 3.97301 11.4812 4.04012 11.9665C4.15755 12.954 4.25821 14.3598 4.25821 15.4979C4.25821 15.5816 4.24143 15.7824 4.24143 16.1339C4.24143 16.4854 4.17433 16.8536 4.05689 17.205C3.7046 18.0251 3.36907 18.5941 3.05033 18.9456Z" />
</svg>

<svg xmlns="http://www.w3.org/2000/svg" fill="currentColor" viewBox="0 0 24 24">
  <path d="M3.05 18.946c.218-.218.453-.352.722-.402a3 3 0 0 1 .486-.067c.42 0 .956.184 1.577.536C8.1 20.435 9.392 22.093 9.694 24c0 0 .117-.251.369-.736.251-.486.587-1.055 1.006-1.674 1.124-.753 1.997-.937 2.6-.937h.085c.67.05 1.04.217 1.04.217 0 .034-.671-1.104-1.728-1.238a2.176 2.176 0 0 1 1.056-.285c.118 0 .252 0 .37.017 1.14.251 1.912 1.138 2.7 2.159.47.636.99 1.205 1.578 1.707.587.519 1.342.77 2.264.77 0 0-.218-.218-.654-.67-.453-.451-.906-1.054-1.359-1.84-.453-.77-.755-1.674-.889-2.712-.017.034.335 1.021.637 1.322 0 0-.016-.318-.067-.937-.05-.62-.084-1.104-.084-1.456 0-.67.05-1.422.135-2.243.15-1.255.503-2.46 1.09-3.615.017 0-.084-.1-.268-.1-.201 0-.47.084-.923.452 0 0-.017-.168-.034-.486a8.2 8.2 0 0 1-.05-.836c0-.318.017-.67.05-1.055.084-1.339.504-2.862 1.527-3.95 0 0-.201-.167-.604-.485-.402-.318-.889-.753-1.442-1.305C16.958 2.979 15.834 1.556 15.314 0c0 0 .033.335.117 1.004.084.686.168 1.49.252 2.41.184 1.875.184 2.862.184 3.18 0 .62-.033 1.105-.117 1.44-.403 1.59-.705 1.974-.705 1.991 0 .017.772-.67 1.342-1.121 0 0-.067.318-.201.937a36.128 36.128 0 0 0-.403 2.377c-.285 1.89-.268 3.062-.268 3.28 0 .854.084 1.623.235 2.326 0 0-.201-.234-.587-.502-.403-.25-.906-.452-1.46-.452h-.1c.419.117.872.335 1.006.653l-1.594-.084c.017 0-.084-.25-.084-.468 0 0-.033-.285-.083-.87a20.144 20.144 0 0 1-.135-1.842 32.438 32.438 0 0 1-.05-1.606c0-.536.017-1.088.05-1.657.135-1.557.386-2.795.772-3.75l.554-1.405c.016 0-1.007.87-1.326 1.406 0 0 .05-.285.135-.837.083-.552.2-1.222.352-2.025.15-.787.352-1.573.604-2.36.235-.787.503-1.422.788-1.925 0 0-.168.251-.503.737a32.43 32.43 0 0 1-1.292 1.724 20.492 20.492 0 0 1-1.71 1.89c-.605.587-1.175 1.005-1.729 1.256 0 0 .067.435.218 1.289.134.853.269 1.84.42 2.962.134 1.121.218 2.142.268 3.063l-.705-.452s.084.335.235 1.021c.151.686.269 1.406.37 2.159.1.77.15 1.44.15 1.992 0 .284 0 .552-.016.82-.118 1.121-.252 1.924-.403 2.376a38.09 38.09 0 0 1-.235.686c-.184-.669-1.074-2.527-1.577-2.962.017.017.034.067.034.134 0 .084-.017.167-.034.251-.134-.134-.268-.268-.42-.385 0 0-.167-.15-.318-.519-.084-.184-.151-.435-.201-.77-.135-.652-.118-1.305-.118-1.439 0-.469.034-1.02.118-1.657.235-1.824.486-3.23.738-4.234.251-.988.369-1.49.369-1.49.017-.016-.99.335-1.158.837 0 0 .017-.519.034-1.556.017-1.021.134-2.243.352-3.666a15.939 15.939 0 0 1 1.158-4 33.327 33.327 0 0 0-1.577 1.69c-.52.62-1.09 1.222-1.695 1.775C4.761 4.2 3.973 4.77 3 5.322c0 0 .084.234.268.686.185.452.386 1.021.604 1.69.453 1.34.806 2.796.806 3.8v.117s-.118-.1-.252-.217a.755.755 0 0 0-.436-.168h-.05s.033.251.1.736c.118.988.218 2.394.218 3.532 0 .084-.017.284-.017.636 0 .351-.067.72-.184 1.071-.352.82-.688 1.39-1.007 1.74Z"/>
</svg>
